packages/Snapp/src/CameraIcon/index.svg

<?xml version="1.0" encoding="UTF-8"?>
<svg width="24px" height="24px" viewBox="0 0 24 24" version="1.1" xmlns="http://www.w3.org/2000/svg" xmlns:xlink="http://www.w3.org/1999/xlink">
    <title>Icons/24/Camera</title>
    <g id="Icons/24/Camera" stroke="none" stroke-width="1" fill="none" fill-rule="evenodd">
        <path d="M15,3 C15.3972978,3 15.7569129,3.23519384 15.9161573,3.59918117 L15.9161573,3.59918117 L16.654,5.285 L19,5.28571429 C20.5976809,5.28571429 21.9036609,6.53463425 21.9949073,8.1094415 L21.9949073,8.1094415 L22,8.28571429 L22,18 C22,19.6568542 20.6568542,21 19,21 L19,21 L5,21 C3.34314575,21 2,19.6568542 2,18 L2,18 L2,8.28571429 C2,6.62886004 3.34314575,5.28571429 5,5.28571429 L5,5.28571429 L7.345,5.285 L8.08384267,3.59918117 C8.22539329,3.27563688 8.52526142,3.05385534 8.86918621,3.00856493 L8.86918621,3.00856493 L9,3 Z M14.345,5 L9.654,5 L8.91615733,6.68653312 C8.77460671,7.01007741 8.47473858,7.23185894 8.13081379,7.27714936 L8.13081379,7.27714936 L8,7.28571429 L5,7.28571429 C4.44771525,7.28571429 4,7.73342954 4,8.28571429 L4,8.28571429 L4,18 C4,18.5522847 4.44771525,19 5,19 L5,19 L19,19 C19.5522847,19 20,18.5522847 20,18 L20,18 L20,8.28571429 C20,7.73342954 19.5522847,7.28571429 19,7.28571429 L19,7.28571429 L16,7.28571429 C15.6027022,7.28571429 15.2430871,7.05052045 15.0838427,6.68653312 L15.0838427,6.68653312 L14.345,5 Z M12,9 C14.209139,9 16,10.790861 16,13 C16,15.209139 14.209139,17 12,17 C9.790861,17 8,15.209139 8,13 C8,10.790861 9.790861,9 12,9 Z M12,11 C10.8954305,11 10,11.8954305 10,13 C10,14.1045695 10.8954305,15 12,15 C13.1045695,15 14,14.1045695 14,13 C14,11.8954305 13.1045695,11 12,11 Z" id="Combined-Shape" fill="#404040"></path>
    </g>
</svg>

<svg viewBox="0 0 24 24" xmlns="http://www.w3.org/2000/svg" fill="currentColor" focusable="false">
  <path d="M15 3a1 1 0 01.916.6l.738 1.685H19a3 3 0 012.995 2.824l.005.177V18a3 3 0 01-3 3H5a3 3 0 01-3-3V8.286a3 3 0 013-3l2.345-.001.739-1.686a1 1 0 01.785-.59L9 3zm-.655 2H9.654l-.738 1.687a1 1 0 01-.785.59L8 7.286H5a1 1 0 00-1 1V18a1 1 0 001 1h14a1 1 0 001-1V8.286a1 1 0 00-1-1h-3a1 1 0 01-.916-.6L14.345 5zM12 9a4 4 0 110 8 4 4 0 010-8zm0 2a2 2 0 100 4 2 2 0 000-4z" fill-rule="evenodd"/>
</svg>
